X:1
T:AMAZING GRACE
M:C|
L:1/8
Q:80
C:TRAD. HYMM
S:SLOW or DEATH MARCH
K:HP
[| e | \
{g}Ad{gdG}d4 | \
{g}fe/2d/2{g}f4 | \
{g}fe{Gdc}d4 |
{g}B2{G}A4 | \
{g}Ad{gdG}d4 | \
{g}fe/2d/2{g}f4 |
{g}ef{ag}a4 | \
{g}-a4- | \
fa{g}a4 |
fe/2d/2{g}f4 | \
{g}fe{Gdc}d4 | \
{g}B2{G}A4|1
{g}Ad{gdG}d4 | \
{g}fe/2d/2{g}f4 | \
e2{g}e2{Gdc}d4- |
{gdG}d4:|2
{g}Ad{gdG}d4 | \
{g}fe/2d/2{g}f4 |
e2{g}e6- | \
{Gdc}d4|]
